X: 1
T: Eagle's Feather, The
M: 3/4
L: 1/8
R: waltz
K: G Major
|:D GA | 
B2 BA Bd | B2 BA Bd | E3 B AB | D3 E (3FED |
B2 BA Bd | B2 BA Bd | E3 B AB | G3 :|
|:A Bd | 
e2 ef ed | B2 BA Bd | ef ed Bd | e3 f gf |
e2 ef ed | B2 BA Bd | E3 B AB | G3 :|
